svg/part/trouser_line.svg

<?xml version="1.0" encoding="UTF-8"?>
<svg width="24px" height="24px" viewBox="0 0 24 24" version="1.1" xmlns="http://www.w3.org/2000/svg" xmlns:xlink="http://www.w3.org/1999/xlink">
    <title>trouser_line</title>
    <g id="Icon" stroke="none" stroke-width="1" fill="none" fill-rule="evenodd">
        <g id="Part" transform="translate(-768.000000, -96.000000)">
            <g id="trouser_line" transform="translate(768.000000, 96.000000)">
                <path d="M24,0 L24,24 L0,24 L0,0 L24,0 Z M12.5934901,23.257841 L12.5819402,23.2595131 L12.5108777,23.2950439 L12.4918791,23.2987469 L12.4918791,23.2987469 L12.4767152,23.2950439 L12.4056548,23.2595131 C12.3958229,23.2563662 12.3870493,23.2590235 12.3821421,23.2649074 L12.3780323,23.275831 L12.360941,23.7031097 L12.3658947,23.7234994 L12.3769048,23.7357139 L12.4804777,23.8096931 L12.4953491,23.8136134 L12.4953491,23.8136134 L12.5071152,23.8096931 L12.6106902,23.7357139 L12.6232938,23.7196733 L12.6232938,23.7196733 L12.6266527,23.7031097 L12.609561,23.275831 C12.6075724,23.2657013 12.6010112,23.2592993 12.5934901,23.257841 L12.5934901,23.257841 Z M12.8583906,23.1452862 L12.8445485,23.1473072 L12.6598443,23.2396597 L12.6498822,23.2499052 L12.6498822,23.2499052 L12.6471943,23.2611114 L12.6650943,23.6906389 L12.6699349,23.7034178 L12.6699349,23.7034178 L12.678386,23.7104931 L12.8793402,23.8032389 C12.8914285,23.8068999 12.9022333,23.8029875 12.9078286,23.7952264 L12.9118235,23.7811639 L12.8776777,23.1665331 C12.8752882,23.1545897 12.8674102,23.1470016 12.8583906,23.1452862 L12.8583906,23.1452862 Z M12.1430473,23.1473072 C12.1332178,23.1423925 12.1221763,23.1452606 12.1156365,23.1525954 L12.1099173,23.1665331 L12.0757714,23.7811639 C12.0751323,23.7926639 12.0828099,23.8018602 12.0926481,23.8045676 L12.108256,23.8032389 L12.3092106,23.7104931 L12.3186497,23.7024347 L12.3186497,23.7024347 L12.3225043,23.6906389 L12.340401,23.2611114 L12.337245,23.2485176 L12.337245,23.2485176 L12.3277531,23.2396597 L12.1430473,23.1473072 Z" id="MingCute" fill-rule="nonzero"></path>
                <path d="M16.1049,2 C17.0703632,2 17.8895327,2.68773263 18.068742,3.62133823 L18.0926,3.77914 L19.8704,19.7791 C19.9966125,20.9145333 19.1501446,21.9134002 18.0302644,21.9946678 L17.8827,22 L14.8021,22 C13.9198412,22 13.1490176,21.4232471 12.8918094,20.5925523 L12.8497,20.4339 L11.9999,16.6098 L11.1501,20.4339 C10.9587588,21.2950765 10.2284889,21.9224869 9.36175378,21.99332 L9.19774,22 L6.11718,22 C4.9748275,22 4.07552111,21.0484429 4.11841446,19.9263613 L4.12941,19.7791 L5.90719,3.77914 C6.01380684,2.81957895 6.78780086,2.0813431 7.73548845,2.00629213 L7.89496,2 L16.1049,2 Z M16.4382,7 L7.56163,7 L6.11718,20 L9.19774,20 L11.0237,11.7831 C11.1254,11.3255 11.5312,11 11.9999,11 C12.4686,11 12.8744,11.3255 12.9761,11.7831 L14.8021,20 L17.8827,20 L16.4382,7 Z M16.1049,4 L7.89496,4 L7.78385,5 L16.216,5 L16.1049,4 Z" id="形状" fill="#09244B"></path>
            </g>
        </g>
    </g>
</svg>

<svg xmlns="http://www.w3.org/2000/svg" width="24" height="24"><g fill="none" fill-rule="evenodd"><path d="M24 0v24H0V0h24ZM12.593 23.258l-.011.002-.071.035-.02.004-.014-.004-.071-.035c-.01-.004-.019-.001-.024.005l-.004.01-.017.428.005.02.01.013.104.074.015.004.012-.004.104-.074.012-.016.004-.017-.017-.427c-.002-.01-.009-.017-.017-.018Zm.265-.113-.013.002-.185.093-.01.01-.003.011.018.43.005.012.008.007.201.093c.012.004.023 0 .029-.008l.004-.014-.034-.614c-.003-.012-.01-.02-.02-.022Zm-.715.002a.023.023 0 0 0-.027.006l-.006.014-.034.614c0 .012.007.02.017.024l.015-.002.201-.093.01-.008.004-.011.017-.43-.003-.012-.01-.01-.184-.092Z"/><path fill="#09244B" d="M16.105 2a2 2 0 0 1 1.964 1.621l.024.158 1.777 16a2 2 0 0 1-1.84 2.216l-.147.005h-3.08a2 2 0 0 1-1.911-1.407l-.042-.16L12 16.61l-.85 3.824a2 2 0 0 1-1.788 1.56L9.198 22h-3.08a2 2 0 0 1-2-2.074l.011-.147 1.778-16a2 2 0 0 1 1.828-1.773L7.895 2h8.21Zm.333 5H7.562L6.117 20h3.08l1.827-8.217a1 1 0 0 1 1.952 0L14.802 20h3.08L16.439 7Zm-.333-3h-8.21l-.111 1h8.432l-.111-1Z"/></g></svg>
